X: 2040
T: Ashplant, The
R: reel
M: 4/4
K: Edorian
ABE2 BAGA|BE~E2 DEGE|ABBA Bded|gedB A2GA|
ABe2 BAGA|BDEG DEGE|ABBA Bded|gedB A2GA|
~B2eB fge2|B2ed BAGA|~B2dB ~g3a|gedB (3A_BA GA|
ABeB fge2|~B2ed BAGA|B/c/d ef g2ag|gedB A2GA|

